X: 2009
T: NEIL GOW
R: Strathspey.
%R: strathspey
B: James Kerr "Merry Melodies" v.2 p.4 #9
Z: 2016 John Chambers <jc:trillian.mit.edu>
M: C
L: 1/8
K: A
uf |\
ve<uc va>ue f<B B>uf | e<c a>e f3 ug |\
a/g/f/e/ ua>ue f<B B<ug | va>uf ve<uc vA3 ::\
uE |\
vA<A c>uA B<F F>G | A<A c>ue va>ve (f<a) |\
e<a c<a f<B B>ug | a>f e<c A3 :|
